X: 2490
T: Ballydesmond, The
R: polka
M: 2/4
K: Dmixolydian
|:A>B AG|EF GE|A>B AG|Ad d/e/d/c/|
A>B AG|EF GE|AB cE|ED D2:|
ed d2|ed c2|ed ^cd|ea a/b/a/g/|
[1 ed d>f|ed c>B|A>B cd|ef g>f:|
[2 e/f/g dB|ce d>B|AB cE|ED D2||

